printer-3d-nozzle.svg

<svg fill="currentColor" viewBox="0 0 24 24"><path d="M7 2h10v6h2v5h-2.5L13 17h-2l-3.5-4H5V8h2zm3 20H2v-2h8a1 1 0 0 0 1-1v-1h2v1a3 3 0 0 1-3 3"/></svg>

<svg  viewBox="0 0 24 24" fill="currentColor"><path  d="M7,2H17V8H19V13H16.5L13,17H11L7.5,13H5V8H7V2M10,22H2V20H10A1,1 0 0,0 11,19V18H13V19A3,3 0 0,1 10,22Z"/></svg>
